X:215
T: Jimmy Giblin's
S: Treoir
Z: B.Black
M: 4/4
L: 1/8
R: reel
K: D
A |: DFAB d2 ef | g2 fg edBd | DFAB dfed |\
dBAF E2 D2 :|
faaf d2 df | g2 fg edBd | faaf d2 df |\
g2 fg e2 eg |
faaf d2 df | g2 fg edBd | DFAB dfed |\
dBAF E2 D2 ||
